packages/katcn/src/icons/svg/calendar.svg

<svg width="24" height="24" viewBox="0 0 24 24" fill="none" xmlns="http://www.w3.org/2000/svg">
<path d="M18.4179 4.6H16.9254V4C16.9254 3.4 16.5274 3 15.9303 3C15.3333 3 14.9353 3.4 14.9353 4V4.6H11.1542C10.5572 4.6 10.1592 5 10.1592 5.6C10.1592 6.2 10.5572 6.6 11.1542 6.6H15.0348V7.2C15.0348 7.8 15.4328 8.2 16.0299 8.2C16.6269 8.2 17.0249 7.8 17.0249 7.2V6.6H18.5174C19.2139 6.6 19.9104 7.2 19.9104 8V9.4H3.99005V8C3.99005 7.2 4.68657 6.6 5.48259 6.6H6.97512V7.2C6.97512 7.8 7.37313 8.2 7.97015 8.2C8.56716 8.2 8.96517 7.8 8.96517 7.2V5.6V4C8.96517 3.4 8.56716 3 7.97015 3C7.37313 3 6.97512 3.4 6.97512 4V4.6H5.48259C3.49254 4.6 2 6.1 2 8V17.6C2 19.5 3.49254 21 5.48259 21H18.5174C20.408 21 22 19.5 22 17.6V8C21.9005 6.1 20.408 4.6 18.4179 4.6ZM18.4179 19H5.48259C4.68657 19 3.99005 18.4 3.99005 17.6V11.4H19.9104V17.6C19.9104 18.4 19.2139 19 18.4179 19Z" fill="black"/>
</svg>

<svg xmlns="http://www.w3.org/2000/svg" fill="none" viewBox="0 0 24 24"><path fill="#000" d="M18.418 4.6h-1.493V4c0-.6-.398-1-.995-1s-.995.4-.995 1v.6h-3.78c-.598 0-.996.4-.996 1s.398 1 .995 1h3.88v.6c0 .6.399 1 .996 1s.995-.4.995-1v-.6h1.492c.697 0 1.393.6 1.393 1.4v1.4H3.99V8c0-.8.697-1.4 1.493-1.4h1.492v.6c0 .6.398 1 .995 1s.995-.4.995-1V4c0-.6-.398-1-.995-1s-.995.4-.995 1v.6H5.483C3.493 4.6 2 6.1 2 8v9.6C2 19.5 3.493 21 5.483 21h13.034C20.408 21 22 19.5 22 17.6V8c-.1-1.9-1.592-3.4-3.582-3.4m0 14.4H5.483c-.796 0-1.493-.6-1.493-1.4v-6.2h15.92v6.2c0 .8-.696 1.4-1.492 1.4"/></svg>
